svg/fluentui-system-icons/ic_fluent_document_bullet_list_arrow_left_24_filled.svg

<svg width="24" height="24" viewBox="0 0 24 24" fill="none" xmlns="http://www.w3.org/2000/svg">
<path d="M12 8V2H6C4.89543 2 4 2.89543 4 4V11.4982C4.76959 11.1772 5.6141 11 6.5 11C7.80123 11 9.01315 11.3824 10.0296 12.0409C10.1201 11.7284 10.4084 11.5 10.75 11.5H16.25C16.6642 11.5 17 11.8358 17 12.25C17 12.6642 16.6642 13 16.25 13H11.1904C11.6168 13.4443 11.9806 13.949 12.2678 14.5H16.25C16.6642 14.5 17 14.8358 17 15.25C17 15.6642 16.6642 16 16.25 16H12.8261C12.9398 16.4815 13 16.9837 13 17.5H16.25C16.6642 17.5 17 17.8358 17 18.25C17 18.6642 16.6642 19 16.25 19H12.8261C12.555 20.1474 11.9799 21.1773 11.1904 22H18C19.1046 22 20 21.1046 20 20V10H14C12.8954 10 12 9.10457 12 8ZM13.5 8V2.5L19.5 8.5H14C13.7239 8.5 13.5 8.27614 13.5 8ZM6.5 23C3.46243 23 1 20.5376 1 17.5C1 14.4624 3.46243 12 6.5 12C9.53757 12 12 14.4624 12 17.5C12 20.5376 9.53757 23 6.5 23ZM9.5 18C9.77614 18 10 17.7761 10 17.5C10 17.2239 9.77614 17 9.5 17H4.70711L6.35355 15.3536C6.54882 15.1583 6.54882 14.8417 6.35355 14.6464C6.15829 14.4512 5.84171 14.4512 5.64645 14.6464L3.14645 17.1464C2.95118 17.3417 2.95118 17.6583 3.14645 17.8536L5.64645 20.3536C5.84171 20.5488 6.15829 20.5488 6.35355 20.3536C6.54882 20.1583 6.54882 19.8417 6.35355 19.6464L4.70711 18H9.5Z" fill="#212121"/>
</svg>

<svg xmlns="http://www.w3.org/2000/svg" width="24" height="24"><path d="M12 8V2H6a2 2 0 0 0-2 2v7.498A6.479 6.479 0 0 1 6.5 11a6.47 6.47 0 0 1 3.53 1.04.75.75 0 0 1 .72-.54h5.5a.75.75 0 0 1 0 1.5h-5.06c.427.444.79.949 1.078 1.5h3.982a.75.75 0 0 1 0 1.5h-3.424c.114.482.174.984.174 1.5h3.25a.75.75 0 0 1 0 1.5h-3.424a6.488 6.488 0 0 1-1.636 3H18a2 2 0 0 0 2-2V10h-6a2 2 0 0 1-2-2Zm1.5 0V2.5l6 6H14a.5.5 0 0 1-.5-.5Zm-7 15a5.5 5.5 0 1 1 0-11 5.5 5.5 0 0 1 0 11Zm3-5a.5.5 0 0 0 0-1H4.707l1.647-1.646a.5.5 0 0 0-.708-.708l-2.5 2.5a.5.5 0 0 0 0 .708l2.5 2.5a.5.5 0 0 0 .708-.708L4.707 18H9.5Z"/></svg>
